X:262
T:The Girls At Martinfield
R:reel
M:4/4
L:1/8
K:Emaj
GF |: E2 E/2E/2E BEGB | E/2E/2E B/2B/2B e/2e/2e ge | fece BeGB | ceBG AFDF |
E2 E/2E/2E BEGB | E/2E/2E B/2B/2B e/2e/2e ge | fece cBBB/B/ | ceBG EGBG :|
|: [G2B2]GF GBcB | ec c/2c/2B ceBe | cc'c'b c'3 c' | bc'ef gfgb |
c'e e/2e/2e fece | BeGE FECE | B,E E/2E/2E EGcG |1 BGFG E2 EF :|2 BGFG E2 |]
